src/assets/filled/SearchFavorite.svg

<svg width="24" height="24" viewBox="0 0 24 24"  xmlns="http://www.w3.org/2000/svg">
<path d="M11 1.99023C6.02999 1.99023 1.98999 6.03023 1.98999 11.0002C1.98999 15.9702 6.02999 20.0102 11 20.0102C15.97 20.0102 20.01 15.9702 20.01 11.0002C20.01 6.03023 15.97 1.99023 11 1.99023ZM14.18 11.5602C13.62 13.3402 11.67 14.3102 11 14.3102C10.31 14.3102 8.39999 13.3802 7.81999 11.5602C7.43999 10.3702 7.86999 8.82023 9.22999 8.39023C9.84999 8.19024 10.51 8.31024 11 8.68023C11.48 8.31024 12.15 8.19024 12.78 8.39023C14.13 8.83024 14.56 10.3802 14.18 11.5602Z" />
<path d="M21.9901 18.95C21.6601 18.34 20.9601 18 20.0201 18C19.3101 18 18.7001 18.29 18.3401 18.79C17.9801 19.29 17.9001 19.96 18.1201 20.63C18.5501 21.93 19.3001 22.22 19.7101 22.27C19.7701 22.28 19.8301 22.28 19.9001 22.28C20.3401 22.28 21.0201 22.09 21.6801 21.1C22.2101 20.33 22.3101 19.56 21.9901 18.95Z" />
</svg>

<?xml version="1.0" encoding="UTF-8"?>
<svg width="24" height="24" viewBox="0 0 24 24" xmlns="http://www.w3.org/2000/svg">
 <path d="m11 1.9902c-4.97 0-9.01 4.04-9.01 9.01 0 4.97 4.04 9.01 9.01 9.01 4.97 0 9.01-4.04 9.01-9.01 0-4.97-4.04-9.01-9.01-9.01zm3.18 9.57c-0.56 1.78-2.51 2.75-3.18 2.75-0.69 0-2.6-0.93-3.18-2.75-0.38-1.19 0.05-2.74 1.41-3.17 0.62-0.19999 1.28-0.07999 1.77 0.29 0.48-0.36999 1.15-0.48999 1.78-0.29 1.35 0.44001 1.78 1.99 1.4 3.17z"/>
 <path d="m21.99 18.95c-0.33-0.61-1.03-0.95-1.97-0.95-0.71 0-1.32 0.29-1.68 0.79s-0.44 1.17-0.22 1.84c0.43 1.3 1.18 1.59 1.59 1.64 0.06 0.01 0.12 0.01 0.19 0.01 0.44 0 1.12-0.19 1.78-1.18 0.53-0.77 0.63-1.54 0.31-2.15z"/>
</svg>
